sunsoft/_inc/system.svg

<svg clip-rule="evenodd" fill-rule="evenodd" image-rendering="optimizeQuality" shape-rendering="geometricPrecision" text-rendering="geometricPrecision" xmlns="http://www.w3.org/2000/svg"><g fill="#fff"><path d="m100.89.003h-48.645c-44.979 8.298 9.915 79.671-7.158 80.67l-45.087.066.003 25.635 63.585-.063c43.302-5.973-14.064-77.85 7.854-78.852 19.386.453 29.448.039 29.448.039z"/><path d="m133.95.015-27.54-.012-.021 86.031c-.075 13.968 15.462 21.285 37.734 21.336 25.95-.114 39.303-5.337 39.312-21.198l.051-86.169h-25.683l-.096 71.388c-.024 3.933-2.025 5.613-5.463 5.586l-11.043.003c-5.085.018-7.344-1.959-7.332-5.544z"/><path d="m385.026.003h-48.648c-44.976 8.298 9.915 79.671-7.158 80.67l-45.087.066.006 25.635 63.585-.063c43.302-5.973-14.064-77.85 7.854-78.852 19.386.453 29.448.039 29.448.039z"/><path d="m218.355.003-25.695-.003v106.431l25.686-.018v-47.688c-.009-15.423 16.515 47.586 33.036 47.694h25.686l-.015-106.413-25.674.003-.03 47.706c-.024 16.359-19.701-47.805-32.994-47.712z"/><path d="m406.197.123h44.409c9.498 0 17.262 5.544 17.262 12.318v81.642c0 6.777-7.764 12.318-17.262 12.318h-44.409c-9.498 0-17.265-5.541-17.265-12.318v-81.642c0-6.774 7.767-12.318 17.265-12.318zm16.644 27.951h9.333c4.509 0 8.193 4.05 8.193 9.006v34.227c0 4.959-3.684 9.006-8.193 9.006h-9.333c-4.506 0-8.19-4.047-8.19-9.006v-34.227c0-4.956 3.684-9.006 8.19-9.006z"/><path d="m473.382 22.023c.012-11.664 9.321-22.02 23.865-22.014l29.358-.006v29.343l-25.689.006-.006 16.53 25.695-.006v27.519l-25.689.003v33.03h-27.522z"/><path d="m535.782.006-.024 25.668h18.354l.015 80.754h27.525v-80.739l18.348.006v-25.689z"/></g></svg>

<?xml version="1.0" encoding="utf-8"?>
<svg style="shape-rendering:geometricPrecision; text-rendering:geometricPrecision; image-rendering:optimizeQuality; fill-rule:evenodd; clip-rule:evenodd" xmlns="http://www.w3.org/2000/svg">
  <g>
    <path id="_48001888" class="fil1" d="M 100.89 0.003 L 52.245 0.003 C 7.266 8.301 62.16 79.674 45.087 80.673 L 0 80.739 L 0.003 106.374 L 63.588 106.311 C 106.89 100.338 49.524 28.461 71.442 27.459 C 90.828 27.912 100.89 27.498 100.89 27.498 L 100.89 0.003 Z" style="fill: rgb(255, 255, 255);"/>
    <path id="_47451944" class="fil1" d="M 133.95 0.015 L 106.41 0.003 L 106.389 86.034 C 106.314 100.002 121.851 107.319 144.123 107.37 C 170.073 107.256 183.426 102.033 183.435 86.172 L 183.486 0.003 L 157.803 0.003 L 157.707 71.391 C 157.683 75.324 155.682 77.004 152.244 76.977 L 141.201 76.98 C 136.116 76.998 133.857 75.021 133.869 71.436 L 133.95 0.015 Z" style="fill: rgb(255, 255, 255);"/>
    <path id="_48536336" class="fil1" d="M 385.026 0.003 L 336.378 0.003 C 291.402 8.301 346.293 79.674 329.22 80.673 L 284.133 80.739 L 284.139 106.374 L 347.724 106.311 C 391.026 100.338 333.66 28.461 355.578 27.459 C 374.964 27.912 385.026 27.498 385.026 27.498 L 385.026 0.003 Z" style="fill: rgb(255, 255, 255);"/>
    <path id="_47587320" class="fil1" d="M 218.355 0.003 L 192.66 0 L 192.66 106.431 L 218.346 106.413 L 218.346 58.725 C 218.337 43.302 234.861 106.311 251.382 106.419 L 277.068 106.419 L 277.053 0.006 L 251.379 0.009 L 251.349 47.715 C 251.325 64.074 231.648 -0.09 218.355 0.003 Z" style="fill: rgb(255, 255, 255);"/>
    <path id="_4167544" class="fil1" d="M 406.197 0.123 L 450.606 0.123 C 460.104 0.123 467.868 5.667 467.868 12.441 L 467.868 94.083 C 467.868 100.86 460.104 106.401 450.606 106.401 L 406.197 106.401 C 396.699 106.401 388.932 100.86 388.932 94.083 L 388.932 12.441 C 388.932 5.667 396.699 0.123 406.197 0.123 Z M 422.841 28.074 L 432.174 28.074 C 436.683 28.074 440.367 32.124 440.367 37.08 L 440.367 71.307 C 440.367 76.266 436.683 80.313 432.174 80.313 L 422.841 80.313 C 418.335 80.313 414.651 76.266 414.651 71.307 L 414.651 37.08 C 414.651 32.124 418.335 28.074 422.841 28.074 Z" style="fill: rgb(255, 255, 255);"/>
    <path id="_48324760" class="fil1" d="M 473.382 22.023 C 473.394 10.359 482.703 0.003 497.247 0.009 L 526.605 0.003 L 526.605 29.346 L 500.916 29.352 L 500.91 45.882 L 526.605 45.876 L 526.605 73.395 L 500.916 73.398 L 500.916 106.428 L 473.394 106.428 L 473.382 22.023 Z" style="fill: rgb(255, 255, 255);"/>
    <polygon id="_49004288" class="fil1" points="535.782 0.006 535.758 25.674 554.112 25.674 554.127 106.428 581.652 106.428 581.652 25.689 600 25.695 600 0.006" style="fill: rgb(255, 255, 255);"/>
  </g>
</svg>
